vendor/shopware/storefront/Resources/app/storefront/dist/assets/icon/default/medal.svg

<svg xmlns="http://www.w3.org/2000/svg" width="24" height="24" viewBox="0 0 24 24">
  <path fill="#758CA3" fill-rule="evenodd" d="M13.3973905,8.12162662 C14.4416772,8.30558982 15.4161301,8.69211005 16.2787271,9.23916521 L21.1258427,0.514357069 C21.3940559,0.0315733363 22.0028592,-0.142370461 22.4856429,0.125842724 C22.9684267,0.394055909 23.1423705,1.0028592 22.8741573,1.48564293 L17.8741573,10.4856429 C17.8645062,10.503015 17.854414,10.5199871 17.8439027,10.5365531 C19.181302,11.9664872 20,13.887635 20,16 C20,20.418278 16.418278,24 12,24 C7.581722,24 4,20.418278 4,16 C4,13.887635 4.81869798,11.9664872 6.15609732,10.5365531 C6.14558596,10.5199871 6.13549385,10.503015 6.12584272,10.4856429 L1.12584272,1.48564293 C0.857629539,1.0028592 1.03157334,0.394055909 1.51435707,0.125842724 C1.9971408,-0.142370461 2.60594409,0.0315733363 2.87415728,0.514357069 L7.72127291,9.23916521 C8.58386995,8.69211005 9.55832285,8.30558982 10.6026095,8.12162662 L8.06367082,1.35112344 C7.8697507,0.834003116 8.13175623,0.257590945 8.64887656,0.0636708224 C9.16599688,-0.1302493 9.74240906,0.131756233 9.93632918,0.648876558 L12,6.15199875 L14.0636708,0.648876558 C14.2575909,0.131756233 14.8340031,-0.1302493 15.3511234,0.0636708224 C15.8682438,0.257590945 16.1302493,0.834003116 15.9363292,1.35112344 L13.3973905,8.12162662 Z M11.9786094,10.0000373 C8.67473888,10.011568 6,12.6934246 6,16 C6,19.3137085 8.6862915,22 12,22 C15.3137085,22 18,19.3137085 18,16 C18,12.6935105 15.3254001,10.0117074 12.0216482,10.0000382 C12.0073333,10.000346 11.992984,10.0003515 11.9786093,10.0000438 Z M12,13 C12.5522847,13 13,13.4477153 13,14 L13,17 C13.5522847,17 14,17.4477153 14,18 C14,18.5522847 13.5522847,19 13,19 L11,19 C10.4477153,19 10,18.5522847 10,18 C10,17.4477153 10.4477153,17 11,17 L11,15 C10.4477153,15 10,14.5522847 10,14 C10,13.4477153 10.4477153,13 11,13 L12,13 Z"/>
</svg>

<svg xmlns="http://www.w3.org/2000/svg" width="24" height="24" viewBox="0 0 24 24"><path fill="#758CA3" fill-rule="evenodd" d="M13.3974 8.1216a7.9512 7.9512 0 0 1 2.8813 1.1176L21.1258.5144c.2683-.4828.877-.6568 1.3598-.3886.4828.2683.6568.877.3886 1.3598l-5 9a1.0156 1.0156 0 0 1-.0303.051C19.1813 11.9665 20 13.8876 20 16c0 4.4183-3.5817 8-8 8s-8-3.5817-8-8c0-2.1124.8187-4.0335 2.1561-5.4634a1.0156 1.0156 0 0 1-.0303-.051l-5-9C.8576 1.003 1.0316.3941 1.5144.1258 1.997-.1424 2.6059.0316 2.8742.5144l4.847 8.7248a7.9512 7.9512 0 0 1 2.8814-1.1176l-2.539-6.7705C7.8699.834 8.1319.2576 8.649.0637c.5171-.194 1.0935.068 1.2874.5852L12 6.152 14.0637.6489c.1939-.5171.7703-.7791 1.2874-.5852.5171.1939.7791.7703.5852 1.2874l-2.539 6.7705zM11.9786 10C8.6747 10.0116 6 12.6934 6 16c0 3.3137 2.6863 6 6 6s6-2.6863 6-6c0-3.3065-2.6746-5.9883-5.9784-6a1.0033 1.0033 0 0 1-.043 0zM12 13c.5523 0 1 .4477 1 1v3c.5523 0 1 .4477 1 1s-.4477 1-1 1h-2c-.5523 0-1-.4477-1-1s.4477-1 1-1v-2c-.5523 0-1-.4477-1-1s.4477-1 1-1h1z"/></svg>
